X: 120002
T: Land of Sunshine
R: reel
C: Martin Mulhaire
Z: B.Black
M: 4/4
L: 1/8
K: C
G, | C2 EC B,DGF | EccB cGEG | FAdF EGcG |\
FEDC B,G,A,B, |
C2 EC B,DGF | EccB cGEG | FAdA BGFD | DCB,D C3 :|
e/2f/2 | ge e2 fdBd | cedB cGEG | FAdF EGce |\
fedc defa |
ge e2 fdBd | cedB cGEG | FAdc BGFD | DCB,D C3 :|
